public/assets/headerphone/catalog.svg

<svg width="24" height="24" viewBox="0 0 24 24" fill="none" xmlns="http://www.w3.org/2000/svg">
<g id="24/ catalog">
<g id="Vector">
<path fill-rule="evenodd" clip-rule="evenodd" d="M14.7202 16.2562C16.0615 16.2562 17.3008 15.8191 18.3032 15.0795L21.933 18.7093C22.2869 19.0632 22.8607 19.0632 23.2145 18.7093C23.5684 18.3554 23.5684 17.7817 23.2145 17.4278L19.5847 13.798C20.3243 12.7955 20.7614 11.5563 20.7614 10.215C20.7614 6.87856 18.0567 4.17383 14.7202 4.17383C11.3838 4.17383 8.67904 6.87856 8.67904 10.215C8.67904 13.5515 11.3838 16.2562 14.7202 16.2562ZM14.7202 14.4439C15.8464 14.4439 16.8697 14.0037 17.6275 13.286C17.6509 13.2558 17.6765 13.2267 17.7042 13.199C17.7319 13.1712 17.761 13.1457 17.7912 13.1223C18.5089 12.3645 18.9491 11.3412 18.9491 10.215C18.9491 7.8795 17.0558 5.98619 14.7202 5.98619C12.3847 5.98619 10.4914 7.8795 10.4914 10.215C10.4914 12.5505 12.3847 14.4439 14.7202 14.4439Z" fill="#202020"/>
<path d="M1.42962 5.68413C0.929147 5.68413 0.523438 6.08984 0.523438 6.5903C0.523438 7.09077 0.929147 7.49648 1.42962 7.49648H5.05433C5.5548 7.49648 5.96051 7.09077 5.96051 6.5903C5.96051 6.08984 5.5548 5.68413 5.05433 5.68413H1.42962Z" fill="#202020"/>
<path d="M1.42962 11.7253C0.929147 11.7253 0.523438 12.131 0.523438 12.6315C0.523438 13.132 0.929147 13.5377 1.42962 13.5377H5.05433C5.5548 13.5377 5.96051 13.132 5.96051 12.6315C5.96051 12.131 5.5548 11.7253 5.05433 11.7253H1.42962Z" fill="#202020"/>
<path d="M0.523438 18.6727C0.523438 18.1722 0.929147 17.7665 1.42962 17.7665H11.0955C11.596 17.7665 12.0017 18.1722 12.0017 18.6727C12.0017 19.1732 11.596 19.5789 11.0955 19.5789H1.42962C0.929147 19.5789 0.523438 19.1732 0.523438 18.6727Z" fill="#202020"/>
</g>
</g>
</svg>

<svg width="24" height="24" fill="none" xmlns="http://www.w3.org/2000/svg"><g fill="#202020"><path fill-rule="evenodd" clip-rule="evenodd" d="M14.72 16.256c1.341 0 2.58-.437 3.583-1.177l3.63 3.63a.906.906 0 1 0 1.282-1.281l-3.63-3.63a6.041 6.041 0 1 0-4.865 2.458Zm0-1.812c1.126 0 2.15-.44 2.908-1.158a.92.92 0 0 1 .163-.164 4.229 4.229 0 1 0-3.071 1.322Z"/><path d="M1.43 5.684a.906.906 0 1 0 0 1.812h3.624a.906.906 0 1 0 0-1.812H1.43ZM1.43 11.725a.906.906 0 1 0 0 1.813h3.624a.906.906 0 1 0 0-1.813H1.43ZM.523 18.673c0-.5.406-.906.907-.906h9.665a.906.906 0 1 1 0 1.812H1.43a.906.906 0 0 1-.907-.906Z"/></g></svg>
